dbux-code/resources/light/dependency.svg

<?xml version="1.0" encoding="UTF-8"?>
<svg xmlns="http://www.w3.org/2000/svg" xmlns:xlink="http://www.w3.org/1999/xlink" width="16pt" height="16pt" viewBox="0 0 16 16" version="1.1">
<g id="surface1">
<path style=" stroke:none;fill-rule:nonzero;fill:rgb(96.470588%,96.470588%,96.470588%);fill-opacity:1;" d="M 9.585938 16 L 8 14.414062 L 6.414062 16 L 1.585938 16 L 0 14.414062 L 0 10.585938 L 1.585938 9 L 3.53125 9 L 4.863281 7 L 4.585938 7 L 3 5.414062 L 3 1.585938 L 4.585938 0 L 11.414062 0 L 13 1.585938 L 13 5.414062 L 11.414062 7 L 11.136719 7 L 12.46875 9 L 14.414062 9 L 16 10.585938 L 16 14.414062 L 14.414062 16 Z M 8 10.585938 L 9.152344 9.433594 L 8 7.703125 L 6.847656 9.433594 Z M 8 10.585938 "/>
<path style=" stroke:none;fill-rule:nonzero;fill:rgb(25.882353%,25.882353%,25.882353%);fill-opacity:1;" d="M 14 10 L 11.933594 10 L 9.269531 6 L 11 6 L 12 5 L 12 2 L 11 1 L 5 1 L 4 2 L 4 5 L 5 6 L 6.734375 6 L 4.066406 10 L 2 10 L 1 11 L 1 14 L 2 15 L 6 15 L 7 14 L 7 11 L 6 10 L 5.269531 10 L 7.933594 6 L 8.066406 6 L 10.734375 10 L 10 10 L 9 11 L 9 14 L 10 15 L 14 15 L 15 14 L 15 11 Z M 6 11 L 6 14 L 2 14 L 2 11 Z M 5 5 L 5 2 L 11 2 L 11 5 Z M 14 14 L 10 14 L 10 11 L 14 11 Z M 14 14 "/>
<path style=" stroke:none;fill-rule:nonzero;fill:rgb(94.117647%,93.72549%,94.509804%);fill-opacity:1;" d="M 14 11 L 14 14 L 10 14 L 10 11 Z M 2 14 L 6 14 L 6 11 L 2 11 Z M 11 2 L 5 2 L 5 5 L 11 5 Z M 11 2 "/>
</g>
</svg>

<svg xmlns="http://www.w3.org/2000/svg" viewBox="0 0 16 16"><style>.st0{opacity:0}.st0,.st1{fill:#f6f6f6}.st2{fill:#424242}.st3{fill:#f0eff1}</style><g id="outline"><path class="st0" d="M0 0h16v16H0z"/><path class="st1" d="M9.586 16L8 14.414 6.414 16H1.586L0 14.414v-3.828L1.586 9H3.53l1.333-2h-.278L3 5.414V1.586L4.585 0h6.829L13 1.586v3.828L11.414 7h-.278l1.334 2h1.944L16 10.586v3.828L14.414 16H9.586zM8 10.586l1.152-1.152L8 7.705 6.847 9.434 8 10.586z"/></g><path class="st2" d="M14 10h-2.065L9.268 6H11l1-1V2l-1-1H5L4 2v3l1 1h1.733l-2.667 4H2l-1 1v3l1 1h4l1-1v-3l-1-1h-.732l2.667-4h.131l2.667 4H10l-1 1v3l1 1h4l1-1v-3l-1-1zm-8 1v3H2v-3h4zM5 5V2h6v3H5zm9 9h-4v-3h4v3z" id="icon_x5F_bg"/><path class="st3" d="M14 11v3h-4v-3h4zM2 14h4v-3H2v3zm9-12H5v3h6V2z" id="icon_x5F_fg"/></svg>
